X: 37554
T: Slow Train, The
R: jig
M: 6/8
K: Bminor
e|:f2B B/c/de|fgf fec|AAA cde|faf gfe|
f2B B/c/de|fgf fec|AAA cde|1 edc Bga:|2 edc dBA||
GGG dAG|ABc eBA|GGG dAG|Aed egf|
GGG dAG|ABc ega|f/g/ff gfg|1 agf gfd:|2 agf gf||

